!!!!SEGMENT: Any1004b-Missa_Queramus_cum_pastoribus-Gloria--Cambrai_3.krn
!!!id: Any1004b
!!!SMS: Cambrai 3
!!!AGN: Mass; Gloria
!!!voices: 4
!!!OPR: Missa Queramus cum pastoribus (Cambrai 3)
!!!COM: Anonymous
!!!OTL: Gloria
**kern	**kern	**kern	**kern
*part4	*part3	*part2	*part1
*staff4	*staff3	*staff2	*staff1
*I"Bassus	*I"Tenor	*I"Altus	*I"Superius
*I'B	*I'T	*I'A	*I'S
*clefF4	*clefGv2	*clefGv2	*clefG2
*k[b-]	*k[b-]	*k[b-]	*k[b-]
*F:	*F:	*F:	*F:
*M2/1	*M2/1	*M2/1	*M2/1
*met(C|)	*met(C|)	*met(C|)	*met(C|)
=1	=1	=1	=1
!!section: Et in terra
!!!OMD: Et in terra
0r	0r	1.f	0r
.	.	2f	.
=2	=2	=2	=2
0r	0r	1f	0r
.	.	1c	.
=3	=3	=3	=3
1r	0r	1.f	1.cc
[1F	.	.	.
.	.	4e	2cc
.	.	4d	.
=4	=4	=4	=4
2F]	0r	4c	1cc
.	.	4B-y	.
2F	.	4A	.
.	.	4G	.
1F	.	4A	1f
.	.	4F	.
.	.	[2f	.
=5	=5	=5	=5
1C	0r	4f]	1.cc
.	.	8eL	.
.	.	8dJ	.
.	.	2e	.
1F	.	2f	.
.	.	2F	2cc
=6	=6	=6	=6
0r	0r	4G	1b-y
.	.	4A	.
.	.	4B-y	.
.	.	4c	.
.	.	4d	1a
.	.	4e	.
.	.	[2f	.
=7	=7	=7	=7
0r	1.c	2f]	1g
.	.	4e	.
.	.	4d	.
.	.	4e	2r
.	.	4d	.
.	2c	4c	2g
.	.	4B-y	.
=8	=8	=8	=8
0F	1c	1A	2.a
.	.	.	4b-y
.	1F	2r	1cc
.	.	[2c	.
=9	=9	=9	=9
1F	0c	2c]	1a
.	.	2d	.
1C	.	1e	1g
=10	=10	=10	=10
1F	2r	2f	2r
.	1F	2d	1a
2r	.	2c	.
[2C	2c	[2e	4g
.	.	.	4f
=11	=11	=11	=11
4C]	2G	4e]	1g
4D	.	4d	.
2E	2.c	4c	.
.	.	4B-y	.
2F	.	4A	2f
.	4B-y	4G	.
2F	4A	[2c	[2ff
.	4G	.	.
=12	=12	=12	=12
1D	2F	2c]	2ff]
.	2F	2B-y	4ee
.	.	.	4dd
1C	2G	2c	1ee
.	[2A	2e	.
=13	=13	=13	=13
1D	2A]	1f	1dd
.	2B-y	.	.
2E	2G	2e	1cc
[2F	2F	2c	.
=14	=14	=14	=14
2F]	2r	1f	1r
4E	2c	.	.
4D	.	.	.
1C	2.c	1e	[1cc
.	8B-yL	.	.
.	8AJ	.	.
=15	=15	=15	=15
1C	2G	2c	2cc]
.	2G	2c	4b-y
.	.	.	4a
2C	2c	2.e	2g
2C	[2G	.	[2ee
.	.	4f	.
=16	=16	=16	=16
2E	2G]	2g	4ee]
.	.	.	4dd
2F	2A	4f	1cc
.	.	4e	.
1G	2B-y	1d	.
.	2B-y	.	2b-y
=17	=17	=17	=17
0r	2F	1c	2a
.	1c	.	4g
.	.	.	4f
.	.	1r	2g
.	4B-y	.	[2a
.	4A	.	.
=18	=18	=18	=18
1G	1B-y	1r	2a]
.	.	.	2g
2F	1A	2r	1a
2D	.	[2d	.
=19	=19	=19	=19
1E	1r	2d]	0r
.	.	2c	.
1D	1d	2A	.
.	.	2B-y	.
=20	=20	=20	=20
2r	2c	2A	1r
2F	2A	2c	.
4BB-y	1B-y	2d	1dd
4C	.	.	.
4D	.	[2f	.
4E	.	.	.
=21	=21	=21	=21
2F	2A	2f]	2cc
2F	2c	2f	2a
1G	2c	2d	1b-y
.	2B-y	2e	.
=22	=22	=22	=22
1F	2c	2f	2a
.	2A	2c	1cc
1C	[1G	2r	.
.	.	2c	4b-y
.	.	.	4a
=23	=23	=23	=23
2r	1G]	2d	1g
2C	.	2e	.
2D	1r	2f	1r
2E	.	2e	.
=24	=24	=24	=24
2F	2r	2c	1r
2D	2F	2B-y	.
2C	2G	2c	2r
2F	2A	2c	2f
=25	=25	=25	=25
1r	2B-y	2d	2g
.	1c	1e	1a
2C	.	.	.
2D	2F	2f	2b-y
=26	=26	=26	=26
2E	2G	2e	2cc
2F	1A	1c	2.a
1D	.	.	.
.	.	.	4g
.	2B-y	2F	[2f
=27	=27	=27	=27
1C	1G	1c	2f]
.	.	.	2e
[1D	2r	2r	2.f
.	2F	2A	.
.	.	.	4g
=28	=28	=28	=28
2D]	2.F	2.A	4a
.	.	.	4b-y
1F	.	.	1a
.	4G	4B-y	.
.	2A	2c	.
2BB-y	2B-y	2d	4g
.	.	.	4f
=29	=29	=29	=29
1C	1G	1c	[0e
2r	[1c	2r	.
2C	.	[2G	.
=30	=30	=30	=30
2.C	1c]	2G]	1e]
.	.	2c	.
4D	.	.	.
2E	2r	2B-y	2r
2F	[2F	2A	2f
=31	=31	=31	=31
1D	2F]	1d	2.f
.	2B-y	.	.
.	.	.	4g
1r	2A	1r	2a
.	2G	.	2b-y
=32	=32	=32	=32
1r	1.c	1r	0g
[1C	.	2r	.
.	4B-y	2c	.
.	4A	.	.
=33	=33	=33	=33
2C]	2G	2.c	0r
2F	2A	.	.
.	.	4d	.
2E	1r	2e	.
2D	.	2f	.
=34	=34	=34	=34
2G	2r	1d	1r
4F	2F	.	.
4E	.	.	.
[1D	2.F	2r	2r
.	.	[2d	2f
.	4G	.	.
=35	=35	=35	=35
1D]	2A	4d]	2.f
.	.	4c	.
.	2B-y	2.d	.
.	.	.	4g
1r	2A	.	2a
.	.	4c	.
.	[2d	4B-y	2b-y
.	.	4A	.
=36	=36	=36	=36
1.G	4d]	2B-y	0g
.	4c	.	.
.	1c	2e-i	.
.	.	1d	.
2G	2BnXi	.	.
=37	=37	=37	=37
2A	4c	1r	0r
.	4B-y	.	.
1F	4A	.	.
.	4G	.	.
.	1A	1c	.
4E	.	.	.
4D	.	.	.
=38	=38	=38	=38
2E	1r	2c	0r
4D	.	2d	.
4E	.	.	.
4F	[1c	2.c	.
4G	.	.	.
[2A	.	.	.
.	.	4B-y	.
=39	=39	=39	=39
4A]	2c]	2A	1r
8GL	.	.	.
8FJ	.	.	.
2G	2d	2B-y	.
1A	[1c	4A	[1cc
.	.	4B-y	.
.	.	4c	.
.	.	4d	.
=40	=40	=40	=40
1r	2c]	2e	2cc]
.	2B-y	1f	2dd
[1F	2A	.	[1cc
.	2F	[2c	.
=41	=41	=41	=41
2F]	2A	4c]	2cc]
.	.	4d	.
2G	2B-y	2e	2b-y
[1F	2.c	1f	[1a
.	4B-y	.	.
=42	=42	=42	=42
2F]	2.A	2r	0a]
2E	.	2c	.
.	8B-yL	.	.
.	8cJ	.	.
[1D	1d	2f	.
.	.	2f	.
=43	=43	=43	=43
1D]	2r	2.d	1dd
.	2A	.	.
.	.	4e	.
2r	2d	2f	1b-y
2G	2d	2g	.
=44	=44	=44	=44
2B-y	1G	2r	1b-y
2B-y	.	2d	.
[1F	2r	2f	[1a
.	2c	2f	.
=45	=45	=45	=45
0F]	2f	1c	0a_
.	2f	.	.
.	4c	2r	.
.	4B-y	.	.
.	4A	2c	.
.	4G	.	.
=46	=46	=46	=46
2r	2A	2c	1a]
2D	2F	2d	.
2F	1A	2c	1r
2F	.	2c	.
=47	=47	=47	=47
[0BB-y	2r	2B-y	1dd
.	2F	2B-y	.
.	2B-y	1F	1b-y
.	2B-y	.	.
=48	=48	=48	=48
1BB-]	0F	2r	1b-y
.	.	2B-y	.
1r	.	2c	[1a
.	.	2d	.
=49	=49	=49	=49
1F	0r	2.c	1a]
.	.	4c	.
2F	.	2c	1r
2G	.	2B-y	.
=50	=50	=50	=50
2.F	1c	2A	1r
.	.	2.A	.
4F	.	.	.
2E	2c	.	[1g
.	.	8GL	.
.	.	8FJ	.
2E	2c	2G	.
=51	=51	=51	=51
1D	2.d	2A	2g]
.	.	1d	2f
.	4c	.	.
1G	2B-y	.	1g
.	2B-y	2e	.
=52	=52	=52	=52
[0F	1A	[0f	[0a
.	1r	.	.
=53	=53	=53	=53
0F]	1c	0f]	1a]
.	2c	.	1r
.	2d	.	.
=54	=54	=54	=54
0r	2.c	0r	1cc
.	4c	.	.
.	2c	.	2cc
.	2B-y	.	2dd
=55	=55	=55	=55
0r	1A	2r	2.cc
.	.	2f	.
.	.	.	4cc
.	1c	2g	2cc
.	.	2g	2b-y
=56	=56	=56	=56
0r	2d	2.f	1a
.	2d	.	.
.	.	4f	.
.	1A	2f	2cc
.	.	2e	2cc
=57	=57	=57	=57
2r	2B-y	1d	2dd
2B-y	2.d	.	2ff
2c	.	[1g	2ee
.	4c	.	.
2c	[2c	.	4dd
.	.	.	4cc
=58	=58	=58	=58
1G	2c]	2g]	4b-y
.	.	.	4a
.	2B-y	2g	2.dd
1A	1c	2e	.
.	.	.	4cc
.	.	2e	[2cc
=59	=59	=59	=59
2r	1d	2f	4cc]
.	.	.	8bnXiL
.	.	.	8aJ
2G	.	2g	2bni
2.A	2c	2e	1cc
.	4F	[2f	.
4G	4G	.	.
=60	=60	=60	=60
2F	4A	4f]	2a
.	4B-y	4e	.
2E	1c	2c	2g
1D	.	1d	1f
.	2BnXi	.	.
=61	=61	=61	=61
0C	0c	1G	0e
.	.	2r	.
.	.	2g	.
=62	=62	=62	=62
0r	0r	2.a	0cc
.	.	4g	.
.	.	2f	.
.	.	2e	.
=63	=63	=63	=63
1r	0r	1d	1dd
2r	.	2c	1ee
2G	.	2B-y	.
=64	=64	=64	=64
2.A	0c	2c	1cc
.	.	2.A	.
4G	.	.	.
2F	.	.	[1ff
.	.	4G	.
2E	.	[2c	.
=65	=65	=65	=65
1D	1d	2c]	1ff]
.	.	2BnXi	.
1C	2e	1c	1ee
.	2c	.	.
=66	=66	=66	=66
2r	2f	2.B-y	2.dd
1G	2e	.	.
.	.	8AL	4cc
.	.	8GJ	.
.	2d	2g	2b-y
2A	[2c	2e	[2a
=67	=67	=67	=67
2F	4c]	2f	4a]
.	4B-y	.	4g
2E	2G	2c	1g
2D	1A	1d	.
2D	.	.	2f#i
=68	=68	=68	=68
2G	1G	0B-y	[0g
2G	.	.	.
1E-X	2r	.	.
.	2G	.	.
=69	=69	=69	=69
1C	2c	2r	1g]
.	2c	2c	.
1r	1B-y	2f	1r
.	.	2f	.
=70	=70	=70	=70
2r	1G	1e	0r
2C	.	.	.
2F	2r	1c	.
2F	2A	.	.
=71	=71	=71	=71
1E	4G	0r	1r
.	4A	.	.
.	4B-y	.	.
.	4G	.	.
2C	4A	.	2r
.	4G	.	.
2E	[2c	.	2cc
=72	=72	=72	=72
1D	2c]	1r	2ff
.	2BnXi	.	2ff
1C	1c	2r	1ee
.	.	2c	.
=73	=73	=73	=73
1r	2r	1f	0cc
.	2F	.	.
2r	2.c	1e	.
2C	.	.	.
.	4B-y	.	.
=74	=74	=74	=74
2F	2A	2c	1cc
2E	2G	2.e	.
2C	1G	.	2r
.	.	4d	.
2E	.	[2c	2cc
=75	=75	=75	=75
1D	1r	2c]	1ff
.	.	2BnXi	.
1C	2r	1c	1ee
.	2c	.	.
=76	=76	=76	=76
1r	2f	0r	2cc
.	2e	.	2.ee
2r	2c	.	.
.	.	.	4dd
2F	2e	.	[2cc
=77	=77	=77	=77
1B-y	1d	2r	2cc]
.	.	2d	2b-y
2A	1c	1f	[1cc
2F	.	.	.
=78	=78	=78	=78
2r	2.c	1e	0cc]
2C	.	.	.
.	4B-y	.	.
2F	2A	2c	.
2E	2G	[2e	.
=79	=79	=79	=79
2C	1G	4e]	2r
.	.	4d	.
2E	.	1c	2cc
1D	1r	.	1ff
.	.	2BnXi	.
=80	=80	=80	=80
1C	2r	1c	1ee
.	2c	.	.
1r	2f	2F	2cc
.	2e	2c	[2ee
=81	=81	=81	=81
2r	2c	1A	4ee]
.	.	.	4dd
2A	2e	.	1cc
2.B-y	1d	2r	.
.	.	2d	2b-y
4A	.	.	.
=82	=82	=82	=82
2F	1c	2f	[0ccl
2C	.	2e	.
2.F	2r	2c	.
.	2A	[2f	.
4E	.	.	.
=83	=83	=83	=83
0C	2.c	2f]	0cc_
.	.	4e	.
.	4B-y	4d	.
.	2G	2.e	.
.	2A	.	.
.	.	4f	.
=84	=84	=84	=84
0Cl	0Gl	0el	0cc]
=85||	=85||	=85||	=85||
*M2/1	*M2/1	*M2/1	*M2/1
*met(C|)	*met(C|)	*met(C|)	*met(C|)
!!section: Qui tollis
!!!OMD: Qui tollis
1.F	1r	0r	0r
.	[1c	.	.
2E	.	.	.
=86	=86	=86	=86
2C	2c]	0r	0r
1D	2A	.	.
.	1B-y	.	.
2BB-y	.	.	.
=87	=87	=87	=87
2C	2A	0r	0r
2D	2B-y	.	.
2AA	1c	.	.
[2F	.	.	.
=88	=88	=88	=88
2F]	1d	1r	0r
2D	.	.	.
2E	[1c	2r	.
2F	.	[2f	.
=89	=89	=89	=89
1C	1c]	2f]	1.cc
.	.	2e	.
1r	1r	2c	.
.	.	[2d	2a
=90	=90	=90	=90
0r	0r	2d]	1b-y
.	.	2B-y	.
.	.	2c	2a
.	.	2d	2b-y
=91	=91	=91	=91
0r	0r	2A	1cc
.	.	1f	.
.	.	.	1dd
.	.	4e	.
.	.	4d	.
=92	=92	=92	=92
2r	0r	2e	[0cc
2F	.	2f	.
2F	.	1c	.
4E	.	.	.
4D	.	.	.
=93	=93	=93	=93
2E	2r	2r	0cc]
2F	1c	2.f	.
1C	.	.	.
.	.	8eL	.
.	.	8dJ	.
.	4B-y	2e	.
.	4A	.	.
=94	=94	=94	=94
2r	2B-y	2d	1r
1C	2c	1e	.
.	2G	.	2r
2AA	[2A	[2c	2ee
=95	=95	=95	=95
2C	4A]	4c]	2ee
.	4G	4B-y	.
2D	4F	1A	1ff
.	4E	.	.
1BB-y	2.D	.	.
.	.	2G	4ee
.	4E	.	4dd
=96	=96	=96	=96
2r	2.F	2A	2cc
1D	.	2.F	2dd
.	4G	.	.
.	4A	.	[1a
.	4B-y	4G	.
2AA	[2c	2A	.
=97	=97	=97	=97
2C	4c]	2E	1a]
.	4B-y	.	.
2D	1A	2F	.
1BB-y	.	2r	1r
.	2G	2d	.
=98	=98	=98	=98
1AA	2A	2f	1r
.	1c	1e	.
2r	.	.	[1cc
2F	2A	2c	.
=99	=99	=99	=99
1F	1c	1f	2cc]
.	.	.	2a
1BB-y	1d	2r	1b-y
.	.	2f	.
=100	=100	=100	=100
2r	2r	1f	2.a
2F	1c	.	.
.	.	.	4b-y
1F	.	1c	1cc
.	2A	.	.
=101	=101	=101	=101
4BB-y	1B-y	1f	1dd
4C	.	.	.
4D	.	.	.
4E	.	.	.
2.F	2.A	2r	[1cc
.	.	2F	.
8EL	4B-y	.	.
8DJ	.	.	.
=102	=102	=102	=102
1C	1c	2G	1cc]
.	.	2A	.
1G	1d	4B-y	1r
.	.	4c	.
.	.	4d	.
.	.	4e	.
=103	=103	=103	=103
0A	2c	2f	2r
.	2.d	2e	1ee
.	.	2r	.
.	8cL	.	.
.	8B-yJ	.	.
.	2c	2A	[2ff
=104	=104	=104	=104
2.D	1d	2B-y	2ff]
.	.	1A	4ee
4E	.	.	4dd
[1F	2r	.	2cc
.	[2A	2A	2dd
=105	=105	=105	=105
1F]	2A]	2.c	1a
.	2A	.	.
.	.	8dL	.
.	.	8eJ	.
2r	[1d	1f	1r
[2D	.	.	.
=106	=106	=106	=106
2D]	1d]	2r	1.a
2D	.	1A	.
[1F	2r	.	.
.	[2A	2A	2a
=107	=107	=107	=107
1F]	2A]	2c	1a
.	2A	2f	.
2r	2c	2e	1g
2G	2B-y	2d	.
=108	=108	=108	=108
2F	2r	1f	1.a
2D	2d	.	.
[1F	2c	1f	.
.	[2A	.	2a
=109	=109	=109	=109
2F]	2A]	2.c	2a
2F	1c	.	2a
.	.	4d	.
4C	.	4e	2.g
4D	.	4f	.
4E	2B-y	[2g	.
4F	.	.	4a
=110	=110	=110	=110
2.G	4G	2g]	4b-y
.	4A	.	4cc
.	4B-y	4f	1dd
4A	4c	4e	.
2B-y	4d	2d	.
.	4e	.	.
2F	[2f	2A	2cc
=111	=111	=111	=111
1G	4f]	2r	2b-y
.	8eL	.	.
.	8dJ	.	.
.	2e	2B-y	4a
.	.	.	4g
[1F	1f	2c	[1a
.	.	2d	.
=112	=112	=112	=112
1F]	2r	1c	1a]
.	2F	.	.
1r	2.G	2.B-y	1b-y
.	4A	4c	.
=113	=113	=113	=113
2r	2B-y	2d	0g
2C	1c	2e-i	.
2.C	.	2r	.
.	4B-y	2c	.
4D	4A	.	.
=114	=114	=114	=114
2E	2G	2.c	0r
2F	2A	.	.
.	.	4d	.
2E	1r	2e	.
2D	.	2f	.
=115	=115	=115	=115
2.G	0r	2d	0r
.	.	2.g	.
4F	.	.	.
4E	.	.	.
4D	.	4f	.
2C	.	[2e	.
=116	=116	=116	=116
2E	1r	4e]	0r
.	.	4d	.
2F	.	1c	.
1D	2r	.	.
.	2F	2BnXi	.
=117	=117	=117	=117
0r	2.F	1c	2r
.	.	.	2f
.	4G	.	.
.	2A	1r	2.f
.	2B-y	.	.
.	.	.	4g
=118	=118	=118	=118
0r	2A	1r	2a
.	2G	.	2b-y
.	2.c	2r	2g
.	.	2A	[2cc
.	4B-y	.	.
=119	=119	=119	=119
1r	4A	2.A	4cc]
.	4G	.	4b-y
.	2F	.	2.a
.	.	4B-y	.
2r	2A	2c	.
.	.	.	4g
2BB-y	2B-y	[2d	[2f
=120	=120	=120	=120
2BB-y	1G	2d]	2f]
2C	.	4c	2e
.	.	4B-y	.
1D	1F	2A	1f
.	.	[2f	.
=121	=121	=121	=121
2D	1r	2f]	0r
2E	.	4e	.
.	.	4d	.
4F	2r	2c	.
4E	.	.	.
4D	2A	2d	.
4C	.	.	.
=122	=122	=122	=122
1D	2A	2r	0r
.	2B-y	2.f	.
1C	1c	.	.
.	.	4d	.
.	.	2e	.
=123	=123	=123	=123
1F	2r	4f	2r
.	.	4e	.
.	2F	4d	2a
.	.	4c	.
1r	2F	1d	2a
.	2G	.	2b-y
=124	=124	=124	=124
2r	1A	2.c	1cc
1F	.	.	.
.	.	4B-y	.
.	[1c	2A	2cc
4E	.	4G	2dd
4D	.	4F	.
=125	=125	=125	=125
1.C	2c]	2G	1ee
.	4B-y	2.c	.
.	4A	.	.
.	1G	.	[1cc
.	.	4d	.
2C	.	2e	.
=126	=126	=126	=126
1F	1A	2.f	2cc]
.	.	.	4b-y
.	.	4e	4a
2G	2r	2d	2b-y
[2F	2A	2f	2cc
=127	=127	=127	=127
2F]	2c	2r	2a
2BB-y	2.d	1f	2.b-y
1F	.	.	.
.	4c	.	4a
.	2c	2f	[2a
=128	=128	=128	=128
1G	2c	2d	2a]
.	2B-y	2e	2g
[1F	1c	1f	[1a
=129	=129	=129	=129
1F]	4c	2r	0a]
.	4B-y	.	.
.	4A	2f	.
.	4G	.	.
2r	1A	2e	.
2F	.	2d	.
=130	=130	=130	=130
2E	2r	2c	0r
2D	2f	2d	.
2G	2e	4B-y	.
.	.	4c	.
2G	[2d	4d	.
.	.	4e	.
=131	=131	=131	=131
2.F	2d]	0f	1r
.	2c	.	.
4E	.	.	.
2.D	2B-y	.	2r
.	[2d	.	2b-y
4E	.	.	.
=132	=132	=132	=132
2F	4d]	1r	2a
.	4c	.	.
1G	2B-y	.	2g
.	2A	2r	2cc
2F#i	2A	2c	2cc
=133	=133	=133	=133
1G	2B-y	2e	2.b-y
.	2B-y	2d	.
.	.	.	4a
1C	2c	4e	2.g
.	.	4c	.
.	2c	[2g	.
.	.	.	4a
=134	=134	=134	=134
0r	1G	4g]	2b-y
.	.	4f	.
.	.	2e	2.cc
.	2r	1d	.
.	.	.	8bnXiL
.	.	.	8aJ
.	2B-y	.	2bni
=135	=135	=135	=135
2r	2A	0c	0cc
2F	2F	.	.
2E	1c	.	.
2C	.	.	.
=136	=136	=136	=136
2.G	2.B-y	0r	0r
4F	4A	.	.
4E	2.G	.	.
4D	.	.	.
[2G	.	.	.
.	4A	.	.
=137	=137	=137	=137
4G]	2B-y	0r	2r
4F	.	.	.
2E	1c	.	2cc
1D	.	.	2ff
.	2BnXi	.	2ff
=138	=138	=138	=138
0C	0c	1r	2.ee
.	.	.	4dd
.	.	2.e	1cc
.	.	4e	.
=139	=139	=139	=139
0r	0r	2d	2.a
.	.	2f	.
.	.	.	4a
.	.	2e	2g
.	.	2d	2b-y
=140	=140	=140	=140
0r	0r	2c	1a
.	.	2f	.
.	.	2f	1g
.	.	2e	.
=141	=141	=141	=141
0r	2.A	4f	2f
.	.	4e	.
.	.	4d	2cc
.	4A	4c	.
.	2G	1d	2cc
.	2B-y	.	2bnXi
=142	=142	=142	=142
1r	1A	0c	0cc
2.E	1G	.	.
4E	.	.	.
=143	=143	=143	=143
2D	2F	0r	0r
2F	2c	.	.
2E	2c	.	.
2D	2BnXi	.	.
=144	=144	=144	=144
2C	2c	2.e	1r
2G	2B-y	.	.
.	.	4e	.
2G	2r	2d	2.a
2F	2c	2f	.
.	.	.	4a
=145	=145	=145	=145
1G	2c	2e	2g
.	2B-y	2d	2b-y
1C	1c	2c	2a
.	.	2G	2g
=146	=146	=146	=146
0r	2r	2B-y	2f
.	2F	2c	2cc
.	2F	1d	2cc
.	2G	.	2bnXi
=147	=147	=147	=147
2r	2.A	1c	0cc
2C	.	.	.
.	4B-y	.	.
2.C	1G	2r	.
.	.	2c	.
4D	.	.	.
=148	=148	=148	=148
2E	0r	2.c	2r
2F	.	.	2cc
.	.	4d	.
1C	.	2e	2.cc
.	.	2f	.
.	.	.	4dd
=149	=149	=149	=149
1r	2r	1c	2ee
.	2F	.	2ff
1BB-y	2.F	1r	1dd
.	4G	.	.
=150	=150	=150	=150
2C	2A	0r	1r
2BB-y	2B-y	.	.
1C	2G	.	2r
.	2G	.	2cc
=151	=151	=151	=151
0r	1F	1f	2.cc
.	.	.	4dd
.	1r	2g	2ee
.	.	2f	2ff
=152	=152	=152	=152
1r	0r	2g	0dd
.	.	2g	.
2r	.	2.g	.
2G	.	.	.
.	.	4f	.
=153	=153	=153	=153
2G	0r	2e	0r
2F	.	2.d	.
1E	.	.	.
.	.	4c	.
.	.	[2c	.
=154	=154	=154	=154
1D	0r	2c]	1r
.	.	2BnXi	.
1C	.	1c	2r
.	.	.	2cc
=155	=155	=155	=155
0r	2r	0r	2.cc
.	2c	.	.
.	.	.	4b-y
.	2c	.	2a
.	2B-y	.	[2g
=156	=156	=156	=156
2r	1A	0r	2g]
2c	.	.	1f
2c	1G	.	.
2B-y	.	.	2e
=157	=157	=157	=157
1A	1F	2r	1f
.	.	1f	.
1G	1r	.	1r
.	.	2e	.
=158	=158	=158	=158
0F	2r	2d	1r
.	2c	2c	.
.	2c	2.f	2r
.	2B-y	.	2cc
.	.	8eL	.
.	.	8dJ	.
=159	=159	=159	=159
2r	2.A	2e	2.cc
2F	.	2f	.
.	4G	.	4b-y
2F	2F	1c	2a
2E	2G	.	[2g
=160	=160	=160	=160
1D	2A	2r	4g]
.	.	.	4f
.	2B-y	2F	1f
1C	1G	1c	.
.	.	.	2e
=161	=161	=161	=161
0Fl	0Fl	0cl	0fl
==	==	==	==
*-	*-	*-	*-
!!!system-decoration: s1,s2,s3,s4
!!!RDF**kern: i = editorial accidental
!!!RDF**kern: l = terminal long
!!!ENC: Maura Sugg
!!!END: 2026/5/13
!!!EED: Benjamin Ory
!!!EEV: 2026/05/26
!!!YEC: Copyright 2026 Irene Holzer, All Rights Reserved
!!!ONB: Translated from MusicXML on 2026/05/26
!!!verovio: header encoded
!!!header-left: Edited by Irene Holzer\n
!!!header-right:
!!!header-center:
!!muse2ps: T^@{OPR}^u^@{ONM}{. }@{OTL}^C^@{COM}^i2I150v90,90,90,120c120z18l2770t130
